X:70
T:Mist Kilkey's
Z: id:dc-hornpine-11
M:C|
L:1/8
K:D Major
GBF D2Bc|dBcA G3:|!
BA DEG|Bdd edd|!
edd =cde|f3 e2d|e2A B c2|fd ce|fe ckan's
Z: id:dc-slipjig-9
M:9/8
L:1/8
K:D Major
B|AFF E2c|d2e ABc|B2 e2f2|d3dc-reel-261
M:C
L:1/8
K:C Mixolydian
A2G A3|AFA dcA|AGA BGG|A3 B2d|d2B c3|!
[1 E|D2D D2c|Bde f2g|agf g2e|f3 g3|!
ede ged|cBc e2d|e2a a3|ecA ABc|dfe d2e|!
fdd def|gfg e2d|efe e2B|A2F E2|]!